X:1
T:Bethlehem (Main), 11.11.11.11
T:Bethlehem (Main), 11.11.11.11
T:Hubert Platt Main, 1900
T:Public Domain Courtesy of the Cyber Hymnal™
C:Hubert Platt Main, 1900
Z:Public Domain
Z:Courtesy of the Cyber Hymnal™
%%score ( 1 2 ) ( 3 4 )
L:1/8
Q:1/4=110
M:4/4
K:A
V:1 treble 
V:2 treble 
V:3 bass 
V:4 bass 
V:1
 A2 E2 C2 E2 | A4 [CA]4 | ([DF][EG]) [EA]2 d2 [Ec]2 | [EB]8 | [Ge]2 [EB]2 [EG]2 [E^A]2 | %5
 [^DB]4 [EB]4 | (EF) [EG]2 [EF]2 [^DF]2 | E8 | [CA]3 [CA] [EA]2 [EB]2 | [Fd]4 [Ec]4 | %10
 [Ee]3 [=Ge] [Fd]2 [^Dc]2 | [EB]8 | [^Ec]2 c2 (dc) B2 | [Ee]4 [CA]4 | (AB) c2 [DB]2 [DB]2 | %15
 [CA]8 |] %16
V:2
 A2 E2 C2 E2 | A4 x4 | x4 (FE) x2 | x8 | x8 | x8 | E2 x6 | E8 | x8 | x8 | x8 | x8 | %12
 x2 (F=E) D2 (B,E) | x8 | F2 (EF) x4 | x8 |] %16
V:3
 A,2 E,2 C,2 E,2 | A,4 [F,A,]4 | (A,B,) [C,A,]2 (F,G,) [A,,A,]2 | [E,G,]8 | %4
 [E,B,]2 [E,G,]2 [E,B,]2 [C,F,]2 | F,2 A,2 [E,G,]4 | (G,^A,) (B,G,) [^A,,C]2 (B,A,) | [E,G,]8 | %8
 [A,,A,]3 [A,,A,] [C,A,]2 [E,G,]2 | A,4 A,4 | [C,A,]3 [C,A,] [D,A,]2 [B,,A,]2 | [E,G,]8 | %12
 [C,G,]2 [F,^A,]2 (B,=A,) G,2 | [C,A,]4 [F,A,]4 | [D,A,]2 A,2 [E,A,]2 [E,G,]2 | [A,,A,]8 |] %16
V:4
 A,2 E,2 C,2 E,2 | A,4 x4 | D,2 x B,,2 x3 | x8 | x8 | B,,4 x4 | C,2 B,,2 x B,,2 x | x8 | x8 | %9
 A,4 A,4 | x8 | x8 | x4 B,,2 (E,D,) | x8 | x2 (C,D,) x4 | x8 |] %16

